public/themes/Gathenhielmska/assets/images/facebook_icon.svg

<svg fill="none" height="13" viewBox="0 0 13 13" width="13" xmlns="http://www.w3.org/2000/svg"><path d="m11.6368.666748h-11.039979c-.2655 0-.48.2145-.48.480002v11.03995c0 .2655.2145.48.48.48h11.039979c.2655 0 .48-.2145.48-.48v-11.03995c0-.265502-.2145-.480002-.48-.480002zm-1.386 3.502502h-.95848c-.7515 0-.897.357-.897.882v1.1565h1.79398l-.23398 1.8105h-1.56v4.64845h-1.8705v-4.64695h-1.5645v-1.812h1.5645v-1.335c0-1.5495.9465-2.394 2.3295-2.394.663 0 1.23148.0495 1.39798.072v1.6185z" fill="#fff"/></svg>

<svg width="13" height="13" viewBox="0 0 13 13" fill="none" xmlns="http://www.w3.org/2000/svg">
<path d="M11.6368 0.666748H0.596821C0.331321 0.666748 0.116821 0.881248 0.116821 1.14675V12.1867C0.116821 12.4522 0.331321 12.6667 0.596821 12.6667H11.6368C11.9023 12.6667 12.1168 12.4522 12.1168 12.1867V1.14675C12.1168 0.881248 11.9023 0.666748 11.6368 0.666748ZM10.2508 4.16925H9.29232C8.54082 4.16925 8.39532 4.52625 8.39532 5.05125V6.20775H10.1893L9.95532 8.01825H8.39532V12.6667H6.52482V8.01975H4.96032V6.20775H6.52482V4.87275C6.52482 3.32325 7.47132 2.47875 8.85432 2.47875C9.51732 2.47875 10.0858 2.52825 10.2523 2.55075V4.16925H10.2508Z" fill="white"/>
</svg>
